X:1
T:Minecraft - Dead Voxel
T:Minecraft Nether
T:C418
T:S.M.Gagnon
C:C418
%%score { ( 1 3 ) | ( 2 4 ) }
L:1/8
Q:1/4=160
M:4/4
K:Eb
V:1 treble nm="Piano" snm="Pno."
V:3 treble 
V:2 bass 
V:4 bass 
V:1
"^\n" [CGB]8- | [CGB]8- | [CGB]8- | [CGB]6 z2 | [CE]8- | [CE]8- | [CE]8- | [CE]6 z2 | [^C^GB]8- | %9
 [CGB]6 z2 | [F^c]8- | [Fc]6 z2 | [^Gc]8- | [Gc]6 z2 | [Be]8- | [Be]8 | [CGB]8- | [CGB]4 C4- | %18
 C4 D4 | F4 f4 | [CFB]8- | [CFB]4 F4- | F2 G6 | B,4 E,4 | [Bf]8- | [Bf]6 z2 | [^c^g]8- | [cg]6 z2 | %28
 g8- | [eg]4 g4 | [eb]8- | [eb]8 | [CGB]6 C2 | d2 B2 G2 C2- | C4 D4 | G2 C2 [Bf]4 | [CF]6 C2 | %37
 G2 E2 F4 | C8 | B,4 ^G,4 | [Bf]8 | e2 B2 f4 | [^c^g]8 | ^g2 ^c=c ^c4 | [cg]8 | e4 c4 | [eb]6 z2 | %47
 f4 b4 | [CGBe]2 d2 e2 d2 | z2 d2 z4 | e2 d2 e2 d2 | e2 d2 [Bef]2 d2 | [CF]2 F2 G2 .B2 | %53
 f2 .c2 [Ff]2 .c2 | .[cf]2 .c2 f2 .c2 | [Bf]2 .c2 .[^Gf]2 .c2 | .[FBf]2 ^C2 F2 C2 | E2 ^C2 F2 CB | %58
 .[F^c^g]2 ^C2 F2 C2 | F2 ^C2 [F^c]2 C2 | [ceg]2 c2 e2 c2 | e2 c2 [ec']2 c2 | [eb]4 d4 | %63
 [df]4 f'4 | .[ceb]2 .d2 .e2 .d2 | .e2 .d2 .e2 .d2 | .e2 .d2 .e2 .d2 | .e2 .d2 .[eb]2 .d2 | %68
 .[Fcf]2 .c2 .f2 .c2 | .f2 .c2 .[Ff]2 .c2 | .f2 .[Gc]2 .f2 .c2 | .f2 .c2 .f2 .c2 | %72
 .[Bf]2 .^c2 .f2 .c2 | .e2 f.^c .f2 .c2 | [^c^g]2 .c2 .f2 .c.g | .f2 .^c2 .[c^g]2 .c2 | %76
 [eg]2 .c2 .e2 .[cg]2 | .e2 .c2 .[ec']2 .c2 | .[eb]2 .c2 .[Be]2 .c2 | .e2 .c2 .[eb]2 .c2 | %80
 [CFGB]8- | [CFGB]2 z2 G4 | C8 | B4 B4 | C4 z4 | z4 G4 | z8 | z4 G4 | [Bd]8 | e4 f4 | [GB]8- | %91
 [GB]8 | z8 | z8 | z8 | z8 | [CGd]8 | [Ge]4 [Bf]4 | [EB]8- | [EB]6 z2 | [Dc]8- | [Dc]8- | [Dc]8- | %103
 [Dc]4 z4 | [dc']4 z4 | [gd']2 z2 [be']2 z2 | [c'g']8- | [c'g'] z z2 z4 | [c'e']8- | [c'e']8- | %110
 [c'e']8- | [c'e']6 z2 | [Dc]8 | d4 e4 | g8- | g8 |!>(! z8!>)! | z8 | z8 | z8 | z8 | z8 |] %122
V:2
!ped! z8 | z8 | z8 | z8 | z8 | z8 | z8 | z8 | ^C,8- | C,8 | F,8- | F,8 | ^G,8- | G,8 | B,8- | B,8 | %16
 [C,,C,]8- | [C,,C,]8- | [C,,C,]8- | [C,,C,]4 z4 | [^G,,,^G,,]8- | [G,,,G,,]8- | [G,,,G,,]8- | %23
 [G,,,G,,]4 z4 | [^C,,^C,]8- | [C,,C,]6 z2 | [F,,F,]8- | [F,,F,]4 z4 | [^G,,,^G,,]8- | [G,,,G,,]8 | %30
 [E,,,E,,]8- | [E,,,E,,]8 | [C,,C,]8- | [C,,C,]8- | [C,,C,]8- | [C,,C,]4 z4 | [^G,,,^G,,]8- | %37
 [G,,,G,,]8- | [G,,,G,,]8- | [G,,,G,,]4 z4 | [^C,,^C,]8- | [C,,C,]6 z2 | [F,,F,]8- | [F,,F,]4 z4 | %44
 [^G,,,^G,,]8- | [G,,,G,,]8 | [E,,,E,,]8- | [E,,,E,,]8 | [C,,C,]8- | [C,,C,]8- | [C,,C,]8- | %51
 [C,,C,]4 z4 | [^G,,,^G,,]8- | [G,,,G,,]8- | [G,,,G,,]8- | [G,,,G,,]4 z4 | [^C,,^C,]8- | %57
 [C,,C,]6 z2 | [F,,F,]8- | [F,,F,]4 z4 | [^G,,,^G,,]8- | [G,,,G,,]8 | [E,,,E,,]8- | [E,,,E,,]8 | %64
 [C,,C,]8- | [C,,C,]3[K:treble] B G4- | G4 D4 | C4 B4 |[K:bass] [^G,,,^G,,]8- | [G,,,G,,]8 | %70
 C6 z2 | B,4 ^G,4 | [^C,,^C,]8- | [C,,C,]6 z2 | [F,,F,]8- | [F,,F,]4 z4 | [^G,,,^G,,]8- | %77
 [G,,,G,,]8 | [E,,,E,,]8- | [E,,,E,,]8 | z4 z2 z B, | .G,2 B,G, z B, z2 | z4 z2 z B, | %83
 .G,2 B,G, z2 .B,2 | z4 z2 z B, | .G,2 B,G, z2 .B,2 | z4 z2 z B, | .G,2 B,G, z4 | C,,8- | C,,8- | %90
 C,,8- | C,,6 z2 | [C,,,C,,]8- | [C,,,C,,]8- | [C,,,C,,]8- | [C,,,C,,]6 z2 | [C,,,C,,]8- | %97
 [C,,,C,,]8- | [C,,,C,,]8- | [C,,,C,,]6 z2 | [C,,,C,,]8- | [C,,,C,,]8- | [C,,,C,,]8- | [C,,,C,,]8 | %104
 [C,,,C,,]4 z4 |[K:treble] G4 B4 | E8 | z8 |[K:bass] [C,^G,]8- | [C,G,]8- | [C,G,]8- | [C,G,]6 z2 | %112
 [C,,,C,,]8 | G,4 B,4 | E,8- | E,8 | [C,,,G,,,C,,]8- | [C,,,G,,,C,,]8- | [C,,,G,,,C,,]8- | %119
 [C,,,G,,,C,,]8 | [C,,,G,,,C,,]8- | [C,,,G,,,C,,]8!ped-up! |] %122
V:3
 x8 | x8 | x8 | x8 | x8 | x8 | x8 | x8 | x8 | x8 | x8 | x8 | x8 | x8 | x8 | x8 | x8 | x8 | x8 | %19
 x8 | x8 | x8 | x8 | x8 | x8 | x8 | x8 | x8 | c8- | c8 | x8 | f4 f'4 | x8 | x8 | x8 | x8 | x8 | %37
 x8 | x8 | x8 | x8 | x8 | x8 | x8 | x8 | x8 | x8 | x8 | x8 | e2 x B [Ge]2 d2 | x8 | x8 | x8 | x8 | %54
 x8 | x8 | x8 | x8 | x8 | x8 | x8 | x8 | x8 | x8 | x8 | x8 | x8 | x8 | x8 | x8 | x8 | x8 | x8 | %73
 x8 | x8 | x8 | x8 | x8 | x8 | x8 | x8 | x8 | x8 | x8 | x8 | x8 | x8 | x8 | x8 | x8 | x8 | x8 | %92
 x8 | x8 | x8 | x8 | x8 | x8 | x8 | x8 | x8 | x8 | x8 | x8 | x8 | x8 | x8 | x8 | x8 | x8 | x8 | %111
 x8 | x8 | x8 | x8 | x8 | x8 | x8 | x8 | x8 | x8 | x8 |] %122
V:4
 x8 | x8 | x8 | x8 | x8 | x8 | x8 | x8 | x8 | x8 | x8 | x8 | x8 | x8 | x8 | x8 | x8 | x8 | x8 | %19
 x8 | x8 | x8 | x8 | x8 | x8 | x8 | x8 | x8 | x8 | x8 | x8 | x8 | x8 | x8 | x8 | x8 | x8 | x8 | %38
 x8 | x8 | x8 | x8 | x8 | x8 | x8 | x8 | x8 | x8 | x8 | x8 | x8 | x8 | x8 | x8 | x8 | x8 | x8 | %57
 x8 | x8 | x8 | x8 | x8 | x8 | x8 | x8 | x3[K:treble] x5 | x8 | x8 |[K:bass] x8 | x8 | x8 | x8 | %72
 x8 | x8 | x8 | x8 | x8 | x8 | x8 | x8 | x8 | C,,8- | C,,8- | C,,8- | C,,8- | C,,8- | C,,8- | %87
 C,,8 | x8 | x8 | x8 | x8 | x8 | x8 | x8 | x8 | x8 | x8 | x8 | x8 | x8 | x8 | x8 | x8 | x8 | %105
[K:treble] x8 | x8 | x8 |[K:bass] x8 | x8 | x8 | x8 | x8 | x8 | x8 | x8 | x8 | x8 | x8 | x8 | x8 | %121
 x8 |] %122

